icons/moonfm.svg

<svg width="32" height="32" viewBox="0 0 32 32" fill="none" xmlns="http://www.w3.org/2000/svg">
<g clip-path="url(#clip0_29_357)">
<path d="M3.775 28.225C1.39688 25.85 0.515625 21.9781 0.515625 16C0.515625 10.0219 1.39688 6.15 3.775 3.775C6.15312 1.4 10.0219 0.515625 16 0.515625C21.9781 0.515625 25.85 1.39688 28.225 3.775C30.6 6.15312 31.4844 10.0219 31.4844 16C31.4844 21.9781 30.6031 25.85 28.225 28.225C25.8469 30.6 21.9781 31.4844 16 31.4844C10.0219 31.4844 6.15 30.6031 3.775 28.225Z" fill="white"/>
<path d="M23.1156 24.8031H8.91874C7.08437 24.8031 6.17499 22.7781 7.48124 21.6063L14.6219 15.1969L21.6562 8.69377C22.9437 7.50315 25.1656 8.3344 25.1656 10.0031V22.9375C25.1656 23.9688 24.25 24.8031 23.1156 24.8031Z" fill="#FE1A86"/>
<path opacity="0.85" d="M23.2187 24.8438H8.8125C7.71562 24.8438 6.825 24.0313 6.825 23.0313V9.90939C6.825 8.28752 8.98125 7.48439 10.2312 8.63751L17.3687 15.2375L24.6156 21.7406C25.8812 22.8781 24.9969 24.8438 23.2187 24.8438Z" fill="#0000DA"/>
</g>
<defs>
<clipPath id="clip0_29_357">
<rect width="32" height="32" fill="white"/>
</clipPath>
</defs>
</svg>

<svg xmlns="http://www.w3.org/2000/svg" width="32" height="32" fill="none" viewBox="0 0 32 32">
  <g clip-path="url(#a)">
    <path fill="#fff" d="M3.775 28.225C1.397 25.85.515 21.978.515 16s.882-9.85 3.26-12.225C6.153 1.4 10.022.515 16 .515s9.85.882 12.225 3.26c2.375 2.378 3.26 6.247 3.26 12.225s-.882 9.85-3.26 12.225c-2.378 2.375-6.247 3.26-12.225 3.26s-9.85-.882-12.225-3.26Z"/>
    <path fill="#FE1A86" d="M23.116 24.803H8.919c-1.835 0-2.744-2.025-1.438-3.197l7.14-6.41 7.035-6.502c1.288-1.19 3.51-.36 3.51 1.31v12.934c0 1.03-.916 1.865-2.05 1.865Z"/>
    <path fill="#0000DA" d="M23.219 24.844H8.812c-1.096 0-1.987-.813-1.987-1.813V9.91c0-1.622 2.156-2.425 3.406-1.272l7.138 6.6 7.247 6.504c1.265 1.137.38 3.103-1.397 3.103Z" opacity=".85"/>
  </g>
  <defs>
    <clipPath id="a">
      <path fill="#fff" d="M0 0h32v32H0z"/>
    </clipPath>
  </defs>
</svg>
